X: 10434
T: Donegal Castle
R: hornpipe
M: 4/4
K: Fmajor
|:(3cde|fcAc (3fgf (3efe|dBGF EAcE|(3FEF dF (3EDE ce|~f2 ag fedc|
fcAc (3fgf (3efe|dBGF EAcE|(3FEF dF (3EDE ce|~f2 ag f2:|
|:(3dcB|Acfc afcA|~B2df bfdf|efga bgeg|~f2 ag (3ded (3BcB|
(3Acf (3afc (3Acf (3afc|(3Bdf (3bfd (3Bdf (3bfd|(3ege e'>d' c'bag|1 f2 a2 f2:|

